X: 148
T: Zai chunji In the spring time
L: 1/8
M: 2/4
K: C
A3A [I:setbarnb 1]| 
A2C D | 
E3G | 
E2G,2 | 
A3c | 
A2C D | 
E4- | 
E4 | 
A3A | 
A A C D | 
E3A | 
G,2A,2 | 
D3E | 
G, A, D C | 
A,4- | 
A,4 |]

@@@ Tune index: 8816
